packages/icons/src/components/Icon/assets/default-outline/music.svg

<svg width="20" height="20" viewBox="0 0 20 20" fill="none" xmlns="http://www.w3.org/2000/svg">
<path d="M6.31396 15.3238V14.7877C6.23362 14.8204 6.15178 14.8513 6.06689 14.8756L4.36279 15.3619C4.11416 15.433 3.94287 15.6609 3.94287 15.9195C3.94296 16.3043 4.31113 16.5817 4.68115 16.4762L5.65479 16.1988C6.04508 16.0873 6.31396 15.7297 6.31396 15.3238ZM14.0571 13.1119V12.5748C13.9766 12.6076 13.8942 12.6393 13.8091 12.6637L12.106 13.15C11.8572 13.2211 11.6851 13.4489 11.6851 13.7076C11.6853 14.0923 12.0543 14.37 12.4243 14.2642L13.397 13.9859C13.7873 13.8744 14.0571 13.5178 14.0571 13.1119ZM7.81396 5.52694V6.73201L14.0571 4.94881V3.74276L7.81396 5.52694ZM15.5571 13.1119C15.5571 14.1875 14.8433 15.1328 13.8091 15.4283L12.8364 15.7066C11.5082 16.0861 10.1853 15.0889 10.1851 13.7076C10.1851 12.7792 10.8012 11.9627 11.6938 11.7076L13.397 11.2213C13.7871 11.1098 14.0569 10.753 14.0571 10.3472V6.50838L7.81396 8.29158V15.3238C7.81396 16.3994 7.10107 17.3447 6.06689 17.6402L5.09326 17.9185C3.76501 18.2979 2.44296 17.3009 2.44287 15.9195C2.44287 14.9912 3.0581 14.1746 3.95068 13.9195L5.65479 13.4332C6.04503 13.3217 6.3139 12.965 6.31396 12.5592V4.96151C6.31408 4.62685 6.53616 4.33286 6.85791 4.2408L14.6011 2.02889C14.8273 1.96431 15.0705 2.0093 15.2583 2.15096C15.4462 2.29268 15.5571 2.51425 15.5571 2.74959V13.1119Z" fill="#727683"/>
</svg>

<svg xmlns="http://www.w3.org/2000/svg" width="20" height="20" fill="none" viewBox="0 0 20 20">
    <path fill="#727683" d="M6.314 15.324v-.536a2 2 0 0 1-.247.088l-1.704.486a.58.58 0 0 0 .318 1.114l.974-.277a.91.91 0 0 0 .659-.875m7.743-2.212v-.537q-.12.05-.248.089l-1.703.486a.58.58 0 0 0 .318 1.114l.973-.278a.91.91 0 0 0 .66-.874M7.814 5.527v1.205l6.243-1.783V3.743zm7.743 7.585a2.41 2.41 0 0 1-1.748 2.316l-.973.279a2.08 2.08 0 0 1-1.142-4l1.703-.486a.91.91 0 0 0 .66-.874V6.508L7.814 8.292v7.032a2.41 2.41 0 0 1-1.747 2.316l-.974.279a2.08 2.08 0 1 1-1.142-4l1.704-.486a.91.91 0 0 0 .659-.874V4.962a.75.75 0 0 1 .544-.721L14.6 2.029a.75.75 0 0 1 .956.72z"/>
</svg>
